X:192
T:Heart Should Be Happy & Merry,The. HSJJ.194
M:6/8
L:1/8
Q:3/8=100
S:HSJ Jackson,Wyresdale,Lancs.1823
R:.Air
O:England
A:Lancashire
H:1823
Z:vmp.Chris Partington
K:D
A|”^Allegretto”d>cd edc|dfdA2A|dfa fdg|fezz2d/e/|f>gfe2c|dcBA2^A|!
B>cB eef|gedc2A|dcd eag|fdf geA|dcd eae|fdzz2|]

